dhis-2/dhis-support/dhis-support-system/src/main/resources/SVGs/rdt_result_neg_negative.svg

<svg width="48" height="48" viewBox="0 0 48 48" fill="none" xmlns="http://www.w3.org/2000/svg">
<path fill-rule="evenodd" clip-rule="evenodd" d="M0 0V47.9994H47.9994V0H0ZM10.6499 17.8028C10.9619 17.8028 11.2139 17.8948 11.4079 18.0798C11.5239 18.1888 11.6099 18.3458 11.6679 18.5508L11.1599 18.6738C11.1299 18.5418 11.0669 18.4358 10.9709 18.3588C10.8759 18.2848 10.7599 18.2458 10.6229 18.2458C10.4339 18.2458 10.2819 18.3138 10.1639 18.4488C10.0469 18.5848 9.98818 18.8048 9.98818 19.1088C9.98818 19.4318 10.0459 19.6638 10.1619 19.8008C10.2779 19.9378 10.4279 20.0058 10.6129 20.0058C10.7499 20.0058 10.8659 19.9617 10.9649 19.8748C11.0629 19.7878 11.1349 19.6518 11.1779 19.4648L11.6759 19.6228C11.5989 19.9017 11.4709 20.1077 11.2929 20.2437C11.1159 20.3787 10.8919 20.4467 10.6189 20.4467C10.2809 20.4467 10.0029 20.3307 9.78508 20.0997C9.56748 19.8668 9.45888 19.5498 9.45888 19.1478C9.45888 18.7228 9.56828 18.3928 9.78698 18.1578C10.0059 17.9218 10.2939 17.8048 10.6499 17.8048V17.8028ZM26.5677 17.8048C26.7067 17.8048 26.8427 17.8248 26.9767 17.8668L26.9097 18.2088C26.8327 18.1888 26.7567 18.1818 26.6857 18.1818C26.6147 18.1818 26.5637 18.2008 26.5327 18.2318C26.5027 18.2648 26.4877 18.3278 26.4877 18.4218V18.5528H26.8517V18.9378H26.4877V20.4037H25.9997V18.9378H25.7287V18.5528H25.9997V18.4118C25.9997 18.2568 26.0157 18.1408 26.0487 18.0638C26.0817 17.9878 26.1427 17.9248 26.2297 17.8768C26.3197 17.8278 26.4327 17.8048 26.5677 17.8048ZM16.0038 17.8478H16.8278C17.1408 17.8478 17.3448 17.8628 17.4388 17.8868C17.5848 17.9248 17.7078 18.0098 17.8068 18.1388C17.9048 18.2668 17.9528 18.4308 17.9528 18.6348C17.9528 18.7918 17.9258 18.9218 17.8688 19.0288C17.8118 19.1358 17.7398 19.2218 17.6518 19.2828C17.5658 19.3438 17.4768 19.3838 17.3868 19.4038C17.2638 19.4278 17.0858 19.4388 16.8538 19.4388H16.5178V20.4017H16.0038V17.8478ZM23.5717 17.8478H24.3957C24.7087 17.8478 24.9127 17.8628 25.0077 17.8868C25.1537 17.9248 25.2747 18.0098 25.3727 18.1388C25.4707 18.2668 25.5207 18.4308 25.5207 18.6348C25.5207 18.7918 25.4917 18.9218 25.4357 19.0288C25.3787 19.1358 25.3067 19.2218 25.2187 19.2828C25.1317 19.3438 25.0427 19.3838 24.9527 19.4038C24.8297 19.4278 24.6527 19.4388 24.4197 19.4388H24.0857V20.4017H23.5717V17.8478ZM16.5178 18.2788V19.0078H16.7988C17.0008 19.0078 17.1368 18.9968 17.2048 18.9688C17.2728 18.9418 17.3268 18.8988 17.3648 18.8418C17.4048 18.7848 17.4238 18.7178 17.4238 18.6428C17.4238 18.5488 17.3978 18.4738 17.3438 18.4138C17.2888 18.3538 17.2198 18.3168 17.1368 18.3008C17.0748 18.2888 16.9528 18.2788 16.7678 18.2788H16.5178ZM24.0857 18.2788V19.0078H24.3667C24.5697 19.0078 24.7047 18.9968 24.7727 18.9688C24.8417 18.9418 24.8927 18.8988 24.9317 18.8418C24.9707 18.7848 24.9917 18.7178 24.9917 18.6428C24.9917 18.5488 24.9647 18.4738 24.9097 18.4138C24.8557 18.3538 24.7857 18.3168 24.7027 18.3008C24.6417 18.2888 24.5187 18.2788 24.3337 18.2788H24.0857ZM18.1388 18.5528H18.6518L18.9978 19.4958L19.0998 19.8118C19.1258 19.7328 19.1428 19.6778 19.1498 19.6538C19.1668 19.6008 19.1828 19.5478 19.2008 19.4958L19.5528 18.5528H20.0547L19.3218 20.4017H18.8828L18.1388 18.5528ZM8.2421 21.6407H39.7577C42.1077 21.6407 43.9996 23.5317 43.9996 25.8827V25.9527C43.9996 28.3036 42.1077 30.1966 39.7577 30.1966H8.2421C5.89193 30.1966 4.00015 28.3036 4.00015 25.9527V25.8827C4.00015 23.5317 5.89193 21.6407 8.2423 21.6407H8.2421ZM39.7807 23.7537C38.5927 23.7537 37.6287 24.7177 37.6287 25.9057C37.6287 27.0947 38.5927 28.0586 39.7807 28.0586C40.9697 28.0586 41.9337 27.0947 41.9337 25.9057C41.9337 24.7177 40.9697 23.7537 39.7807 23.7537ZM8.54709 24.0247C7.55241 24.0247 6.75022 24.8257 6.75022 25.8197C6.75022 26.8147 7.55241 27.6167 8.54709 27.6167H10.3712V24.0247H8.54709ZM10.8852 24.0247V27.6167H28.5619C29.5569 27.6167 30.3589 26.8147 30.3589 25.8197C30.3589 24.8257 29.5569 24.0247 28.5619 24.0247H10.8852ZM34.0619 24.5427C33.3059 24.5427 32.6929 25.1567 32.6929 25.9137C32.6939 26.6697 33.3069 27.2827 34.0619 27.2827C34.8189 27.2837 35.4329 26.6707 35.4339 25.9137C35.4339 25.1567 34.8199 24.5417 34.0619 24.5427Z" fill="#333333"/>
</svg>

<?xml version="1.0" encoding="UTF-8" standalone="no"?>
<!-- Created with Inkscape (http://www.inkscape.org/) -->
<svg id="svg8" xmlns:rdf="http://www.w3.org/1999/02/22-rdf-syntax-ns#" xmlns="http://www.w3.org/2000/svg" xmlns:osb="http://www.openswatchbook.org/uri/2009/osb" height="48" width="48" version="1.1" enable-background="new" xmlns:cc="http://creativecommons.org/ns#" viewBox="0 0 12.7 12.7" xmlns:dc="http://purl.org/dc/elements/1.1/">
 <title id="title4753">UIO-icon</title>
 <metadata id="metadata5">
  <rdf:RDF>
   <cc:Work rdf:about="">
    <dc:format>image/svg+xml</dc:format>
    <dc:type rdf:resource="http://purl.org/dc/dcmitype/StillImage"/>
    <dc:title>UIO-icon</dc:title>
    <dc:creator>
     <cc:Agent>
      <dc:title>Joaquín Urbano</dc:title>
     </cc:Agent>
    </dc:creator>
    <dc:rights>
     <cc:Agent>
      <dc:title>GPL</dc:title>
     </cc:Agent>
    </dc:rights>
   </cc:Work>
  </rdf:RDF>
 </metadata>
 <g id="layer1" fill="#333" transform="translate(0,-284.3)">
  <path id="rect894" d="m0 0v48h48v-48h-48zm10.65 17.803c0.312 0 0.564 0.092 0.758 0.277 0.116 0.109 0.202 0.266 0.26 0.471l-0.508 0.123c-0.03-0.132-0.093-0.238-0.189-0.315-0.095-0.074-0.211-0.113-0.348-0.113-0.189 0-0.341 0.068-0.459 0.203-0.117 0.136-0.1757 0.356-0.1757 0.66 0 0.323 0.0577 0.555 0.1737 0.692s0.266 0.205 0.451 0.205c0.137 0 0.253-0.044 0.352-0.131 0.098-0.087 0.17-0.223 0.213-0.41l0.498 0.158c-0.077 0.279-0.205 0.485-0.383 0.621-0.177 0.135-0.401 0.203-0.674 0.203-0.338 0-0.616-0.116-0.8338-0.347-0.2176-0.233-0.3262-0.55-0.3262-0.952 0-0.425 0.1094-0.755 0.3281-0.99 0.2189-0.236 0.5069-0.353 0.8629-0.353v-0.002zm15.918 0.002c0.139 0 0.275 0.02 0.409 0.062l-0.067 0.342c-0.077-0.02-0.153-0.027-0.224-0.027s-0.122 0.019-0.153 0.05c-0.03 0.033-0.045 0.096-0.045 0.19v0.131h0.364v0.385h-0.364v1.466h-0.488v-1.466h-0.271v-0.385h0.271v-0.141c0-0.155 0.016-0.271 0.049-0.348 0.033-0.076 0.094-0.139 0.181-0.187 0.09-0.049 0.203-0.072 0.338-0.072zm-10.564 0.043h0.824c0.313 0 0.517 0.015 0.611 0.039 0.146 0.038 0.269 0.123 0.368 0.252 0.098 0.128 0.146 0.292 0.146 0.496 0 0.157-0.027 0.287-0.084 0.394s-0.129 0.193-0.217 0.254c-0.086 0.061-0.175 0.101-0.265 0.121-0.123 0.024-0.301 0.035-0.533 0.035h-0.336v0.963h-0.514v-2.554zm7.568 0h0.824c0.313 0 0.517 0.015 0.612 0.039 0.146 0.038 0.267 0.123 0.365 0.252 0.098 0.128 0.148 0.292 0.148 0.496 0 0.157-0.029 0.287-0.085 0.394-0.057 0.107-0.129 0.193-0.217 0.254-0.087 0.061-0.176 0.101-0.266 0.121-0.123 0.024-0.3 0.035-0.533 0.035h-0.334v0.963h-0.514v-2.554zm-7.054 0.431v0.729h0.281c0.202 0 0.338-0.011 0.406-0.039 0.068-0.027 0.122-0.07 0.16-0.127 0.04-0.057 0.059-0.124 0.059-0.199 0-0.094-0.026-0.169-0.08-0.229-0.055-0.06-0.124-0.097-0.207-0.113-0.062-0.012-0.184-0.022-0.369-0.022h-0.25zm7.568 0v0.729h0.281c0.203 0 0.338-0.011 0.406-0.039 0.069-0.027 0.12-0.07 0.159-0.127s0.06-0.124 0.06-0.199c0-0.094-0.027-0.169-0.082-0.229-0.054-0.06-0.124-0.097-0.207-0.113-0.061-0.012-0.184-0.022-0.369-0.022h-0.248zm-5.947 0.274h0.513l0.346 0.943 0.102 0.316c0.026-0.079 0.043-0.134 0.05-0.158 0.017-0.053 0.033-0.106 0.051-0.158l0.352-0.943h0.502l-0.733 1.849h-0.439l-0.744-1.849zm-9.8968 3.088h31.516c2.35 0 4.242 1.891 4.242 4.242v0.07c0 2.351-1.892 4.244-4.242 4.244h-31.516c-2.3502 0-4.242-1.893-4.242-4.244v-0.07c0-2.351 1.8918-4.242 4.2422-4.242zm31.539 2.113c-1.188 0-2.152 0.964-2.152 2.152 0 1.189 0.964 2.153 2.152 2.153 1.189 0 2.153-0.964 2.153-2.153 0-1.188-0.964-2.152-2.153-2.152zm-31.234 0.271c-0.9947 0-1.7969 0.801-1.7969 1.795 0 0.995 0.8022 1.797 1.7969 1.797h1.8241v-3.592h-1.8241zm2.3381 0v3.592h17.677c0.995 0 1.797-0.802 1.797-1.797 0-0.994-0.802-1.795-1.797-1.795h-17.677zm23.177 0.518c-0.756 0-1.369 0.614-1.369 1.371 0.001 0.756 0.614 1.369 1.369 1.369 0.757 0.001 1.371-0.612 1.372-1.369 0-0.757-0.614-1.372-1.372-1.371z" fill-rule="evenodd" transform="matrix(.26458 0 0 .26458 0 284.3)"/>
 </g>
</svg>
